Papirus/32x32/apps/google-chrome-unstable.svg

<svg xmlns="http://www.w3.org/2000/svg" width="32" height="32" version="1">
 <circle style="opacity:.2" cx="16" cy="17" r="14"/>
 <path style="opacity:.1" d="m15.994 29.985c-7.752 0-13.993-6.2408-13.993-13.993 0-0.11734-0.003-0.23319 0-0.34982 0.18501 7.5885 6.3581 13.643 13.993 13.643 7.6346 0 13.808-6.0544 13.993-13.643 0.003 0.11663 0 0.23248 0 0.34982 0 7.752-6.2408 13.993-13.993 13.993z"/>
 <path style="fill:#f66f6f" d="m4.3496094 8.2519531c-0.2408775 0.3659766-0.463677 0.7581774-0.6894532 1.1464844a14 14 0 0 0 -1.6601562 6.6015625 14 14 0 0 0 14 14 14 14 0 0 0 0.214844 -0.007812l6.628906-11.023438c-0.53102 0.86495-2.7434 1.972478-3.6875 2.517578-3.021 1.7442-6.857363 0.616783-8.601562-2.404297l-6.2050786-10.830078z"/>
 <path style="fill:#e58989" d="m16.015625 9c-0.01547 0 2.222016 0.9979485 3.166016 1.542969 2.412436 1.39284 2.664231 6.367355 2.669921 8.380859l0.404297 0.234375-0.412109 0.712891c-0.000032 0.000704 0 0.033203 0 0.033203l-0.15625 0.236328-5.6875 9.851563c0.037113 0.00096 0.074257 0.004072 0.111328 0.003906a14 14 0 0 0 0.580078 -0.021485c0.112132-0.005182 0.224086-0.005796 0.335938-0.013671a14 14 0 0 0 1.316406 -0.160157c0.028743-0.004794 0.057227-0.010652 0.085938-0.015625a14 14 0 0 0 11.570312 -13.785156 14 14 0 0 0 -1.896484 -7h-12.087891z"/>
 <path style="fill:#e64646" d="m15.994141 2a14 14 0 0 0 -0.242188 0.0078125 14 14 0 0 0 -0.742187 0.0273437 14 14 0 0 0 -0.041016 0.0058594 14 14 0 0 0 -1.265625 0.1523438c-0.042854 0.007037-0.086138 0.012266-0.128906 0.0195312-0.002631 0.000447-0.005185 0.0014946-0.007813 0.0019532a14 14 0 0 0 -1.310547 0.2949218 14 14 0 0 0 -2.6054684 1.0136719 14 14 0 0 0 -0.3105468 0.1777344 14 14 0 0 0 -5.4570313 5.3085937l5.6894531 9.8554684 0.1191406 0.238282 0.0292969 0.017578 0.2675781 0.464844 2.4550778 1.972656 0.681641-0.291016 0.78125 0.492188c-0.09245-0.170384-0.185116-0.424514-0.275391-0.708985l4.591797-1.96289-4.751953-8.232422c0.434712-1.0028562 1.194822-1.7061504 2.529297-1.855469h12.103516a14 14 0 0 0 -0.759766 -1.1757812 14 14 0 0 0 -0.855469 -1.0703126 14 14 0 0 0 -0.037109 -0.0429687 14 14 0 0 0 -0.908203 -0.9316406 14 14 0 0 0 -0.095703 -0.0878907 14 14 0 0 0 -0.958985 -0.8027343 14 14 0 0 0 -0.134765 -0.1015625 14 14 0 0 0 -0.990235 -0.6738282 14 14 0 0 0 -0.191406 -0.1171874 14 14 0 0 0 -0.996094 -0.5429688 14 14 0 0 0 -0.283203 -0.1347656 14 14 0 0 0 -0.957031 -0.4003906 14 14 0 0 0 -0.369141 -0.1367188 14 14 0 0 0 -0.921875 -0.28125 14 14 0 0 0 -0.46289 -0.1191406 14 14 0 0 0 -0.861329 -0.171875 14 14 0 0 0 -0.548828 -0.0820313 14 14 0 0 0 -0.785156 -0.078125 14 14 0 0 0 -0.986328 -0.0488281 14 14 0 0 0 -0.005859 0z"/>
 <path style="opacity:.2;fill:#ffffff" d="m16 2a14 14 0 0 0 -14 14 14 14 0 0 0 0.0215 0.586 14 14 0 0 1 13.978 -13.586 14 14 0 0 1 13.979 13.414 14 14 0 0 0 0.021 -0.414 14 14 0 0 0 -14 -14z"/>
 <rect style="opacity:.2" width="14" height="14" x="-24" y="-23" rx="7" ry="7" transform="matrix(0,-1,-1,0,0,0)"/>
 <rect style="fill:#ffffff" width="14" height="14" x="-23" y="-23" rx="7" ry="7" transform="matrix(0,-1,-1,0,0,0)"/>
 <rect style="fill:#e64646" width="10" height="10" x="-21" y="-21" rx="5" ry="5" transform="matrix(0,-1,-1,0,0,0)"/>
</svg>

<svg xmlns="http://www.w3.org/2000/svg" width="32" height="32" version="1">
 <circle style="opacity:0.2" cx="16" cy="17" r="14"/>
 <path style="fill:#f66f6f" d="M 4.349,8.252 C 4.108,8.618 3.885,9.01 3.66,9.398 A 14,14 0 0 0 2,16 14,14 0 0 0 16,30 14,14 0 0 0 16.215,29.992 L 22.844,18.969 C 22.313,19.834 20.101,20.941 19.156,21.487 16.135,23.231 12.299,22.104 10.554,19.083 L 4.349,8.253 Z"/>
 <path style="fill:#e64646" d="M 15.997,2 C 15.467,2 15.211,2.022 15.01,2.035 14.075,2.089 13.162,2.286 12.256,2.51 9.206,3.357 5.931,5.463 3.883,9.01 L 9.988,19.586 12.443,21.559 18.223,19.088 13.471,10.855 C 13.905,9.853 14.666,9.149 16,9 H 28.104 C 27.098,7.262 24.553,3.816 19.645,2.5 18.063,2.065 16.611,2 16.003,2 Z"/>
 <path style="fill:#e58989" d="M 16.016,9 C 16,9 18.238,9.998 19.182,10.543 21.594,11.936 21.846,16.91 21.852,18.924 L 22.256,19.158 16,29.992 C 16.037,29.993 16.074,29.996 16.111,29.996 16.305,29.993 16.498,29.986 16.691,29.975 22.996,29.683 29.999,24.482 30,16 29.994,13.541 29.34,11.126 28.104,9 Z"/>
 <path style="opacity:0.2;fill:#ffffff" d="M 16,2 A 14,14 0 0 0 2,16 14,14 0 0 0 2.0215,16.586 14,14 0 0 1 16,3 14,14 0 0 1 29.978,16.414 14,14 0 0 0 29.999,16 14,14 0 0 0 15.999,2 Z"/>
 <circle style="opacity:0.2" cx="16" cy="17" r="7"/>
 <circle style="fill:#ffffff" cx="16" cy="16" r="7"/>
 <circle style="fill:#e64646" cx="16" cy="16" r="5"/>
</svg>
